X:123
T:Davey davey nick-nack
R:Reel
O:Scotland
O:England
M:4/4
K:G
GFGA B2B2|GFGA B2B2|dcBc A2A2|dcBc A2A2|\
GFGA B2B2|GFGA B2B2|dcBc AcBA|G2B2 G2::
Bc|\
d2dc B2d2|g2g2 d4|dcBc A2A2|dcBc A2A2|\
d2dc B2d2|g2g2 d4|dcBc AcBA|G2B2 G2:|
